icons/desktop/12/email-mask-12.svg

<svg width="12" height="12" viewBox="0 0 12 12" fill="none" xmlns="http://www.w3.org/2000/svg">
<g clip-path="url(#clip0_8069_32460)">
<path fill-rule="evenodd" clip-rule="evenodd" d="M10.2461 6.18652C10.5498 6.24899 10.7345 6.79461 10.835 7.03223C11.0302 7.49391 11.1952 7.95674 11.29 8.44629C11.3555 8.78419 11.53 9.03303 11.873 9.0332L11.876 9.03418C11.9627 9.03551 12.0226 9.12667 11.9922 9.20801C11.9187 9.40417 11.6924 9.52909 11.5039 9.60156C11.5897 9.62386 11.843 9.5735 11.8535 9.69922C11.8614 9.80297 11.5975 9.90682 11.5264 9.94141C10.8614 10.2616 10.2497 10.8359 9.46289 10.7344C9.12079 10.6897 8.87082 10.4493 8.59082 10.2998C8.45883 10.2297 8.29897 10.2297 8.16699 10.2998C7.88698 10.4493 7.63703 10.6898 7.29492 10.7344C6.50808 10.8358 5.89637 10.2616 5.23145 9.94141C5.16031 9.90794 4.89624 9.80297 4.90527 9.69922C4.91699 9.57248 5.1693 9.62385 5.25391 9.60156C5.06544 9.52909 4.83912 9.40418 4.76562 9.20801C4.73519 9.1267 4.794 9.03446 4.88184 9.03418C5.22607 9.03306 5.40028 8.78606 5.46582 8.44824C5.56066 7.9574 5.72557 7.49504 5.9209 7.0332C6.02135 6.79675 6.20533 6.25033 6.50879 6.1875C6.85428 6.1161 7.1608 6.30184 7.55371 7.09277C7.87767 7.74299 8.09668 8.19824 8.09668 8.19824V8.20215L8.31934 8.2002L8.3252 8.19922H8.43652L8.65918 8.20117V8.19727C8.65918 8.19727 8.87819 7.74311 9.20215 7.0918C9.59606 6.30224 9.90074 6.11532 10.2461 6.18652ZM6.60254 9.00098C6.51869 9.01454 6.28868 9.09632 6.29883 9.20215C6.52236 9.7554 7.46177 10.0429 7.91797 9.62695C7.75756 9.11279 7.09928 8.91843 6.60254 9.00098ZM10.1514 9.00098C9.65489 8.91857 8.9967 9.11243 8.83594 9.62598L8.92676 9.69629C9.40643 10.0065 10.2443 9.72078 10.4551 9.20215C10.4652 9.09617 10.2349 9.01436 10.1514 9.00098Z" fill="black"/>
<path fill-rule="evenodd" clip-rule="evenodd" d="M4.79785 1.00293C4.91206 1.00402 5.02634 1.00351 5.14062 1.00586C5.22338 1.00756 5.30603 1.01132 5.38867 1.01367C5.52276 1.0175 5.65691 1.0208 5.79102 1.02637C5.8627 1.02934 5.93429 1.03364 6.00586 1.03711C6.13933 1.04358 6.27286 1.04942 6.40625 1.05762C6.55046 1.06649 6.69428 1.07799 6.83789 1.08887C6.90393 1.09386 6.97014 1.09809 7.03613 1.10352H7.04004C7.04656 1.10405 7.05305 1.10493 7.05957 1.10547C8.16555 1.19747 8.99996 2.10959 9 3.22656V5.63867C8.75093 5.87452 8.55156 6.18135 8.37695 6.5127C8.20129 6.17858 8.00099 5.86926 7.74902 5.63281V3.22656C7.74902 3.22395 7.74807 3.22135 7.74805 3.21875L6.16211 4.80566C5.70111 5.26566 5.08859 5.49902 4.47559 5.49902C3.92372 5.49893 3.37163 5.31064 2.92773 4.92773C2.5922 4.63894 1.90244 3.97624 1.25098 3.34375V5.77637L1.24902 5.77539C1.25099 6.22776 1.60869 6.61154 2.06543 6.64844C2.74112 6.70392 3.41792 6.73144 4.09375 6.73828H4.96191C4.79989 7.12968 4.65081 7.54615 4.54395 7.99414C3.70751 7.99214 2.75727 7.96008 1.96387 7.89453C0.861934 7.80346 0 6.87144 0 5.77148V3.22656C3.53647e-05 2.10959 0.834453 1.19747 1.94043 1.10547C1.94663 1.10495 1.95279 1.10403 1.95898 1.10352H1.96387C2.02953 1.09812 2.09542 1.09384 2.16113 1.08887C2.30474 1.07799 2.44856 1.06649 2.59277 1.05762C2.72616 1.04941 2.85969 1.04358 2.99316 1.03711C3.06474 1.03364 3.13632 1.02934 3.20801 1.02637C3.34211 1.0208 3.47626 1.0175 3.61035 1.01367C3.69299 1.01131 3.77565 1.00756 3.8584 1.00586C3.97268 1.00351 4.08697 1.00402 4.20117 1.00293C4.29292 1.00205 4.38471 1.00007 4.47656 1H4.52344C4.61496 1.00007 4.70643 1.00206 4.79785 1.00293ZM4.5 2.24902C3.73295 2.24905 2.95322 2.27992 2.18066 2.34082C2.14159 2.34391 2.10248 2.34636 2.06348 2.34961C2.05034 2.35072 2.03738 2.35281 2.02441 2.35449C2.69706 3.00876 3.42009 3.70314 3.74316 3.98145C4.18917 4.36319 4.86146 4.33781 5.27637 3.9209L6.85352 2.34277C6.84181 2.34192 6.83006 2.34175 6.81836 2.34082C6.04612 2.27997 5.26673 2.24905 4.5 2.24902Z" fill="black"/>
</g>
<defs>
<clipPath id="clip0_8069_32460">
<rect width="12" height="12" fill="white"/>
</clipPath>
</defs>
</svg>

<!-- This Source Code Form is subject to the terms of the Mozilla Public
   - License, v. 2.0. If a copy of the MPL was not distributed with this
   - file, You can obtain one at http://mozilla.org/MPL/2.0/. -->
<svg xmlns="http://www.w3.org/2000/svg" width="12" height="12" fill="context-fill" fill-opacity="context-fill-opacity" viewBox="0 0 12 12">
    <g fill-rule="evenodd" clip-rule="evenodd">
        <path d="M10.246 6.187c.304.062.489.608.589.845.195.462.36.925.455 1.414.066.338.24.587.583.587l.003.001a.13.13 0 0 1 .116.174c-.073.196-.3.321-.488.394.086.022.339-.029.35.097.007.104-.256.208-.328.242-.665.32-1.276.895-2.063.793-.342-.044-.592-.285-.872-.434a.45.45 0 0 0-.424 0c-.28.15-.53.39-.872.434-.787.102-1.399-.472-2.064-.793-.07-.033-.335-.138-.326-.242.012-.127.264-.075.349-.097-.189-.073-.415-.198-.488-.394-.03-.081.028-.174.116-.174.344 0 .518-.248.584-.586.095-.49.26-.953.455-1.415.1-.236.284-.783.588-.846.345-.07.652.115 1.045.906.324.65.543 1.105.543 1.105v.004l.222-.002h.118l.222.001v-.004s.22-.454.543-1.105c.394-.79.699-.977 1.044-.905M6.603 9c-.084.014-.314.095-.304.201.223.553 1.163.84 1.619.425-.16-.514-.819-.709-1.315-.626m3.548 0c-.496-.082-1.154.111-1.315.625l.09.07c.48.31 1.318.025 1.53-.494.01-.106-.221-.188-.305-.201" />
        <path d="M4.798 1.003q.17 0 .343.003l.248.008.402.012.215.011.4.02.432.032.198.015h.004l.02.001A2.11 2.11 0 0 1 9 3.227v2.412c-.25.236-.448.542-.623.874-.176-.334-.376-.644-.628-.88V3.219L6.161 4.806a2.38 2.38 0 0 1-1.686.693 2.36 2.36 0 0 1-1.548-.571c-.336-.29-1.026-.952-1.677-1.584v2.432h-.002c.002.452.36.836.816.872.676.056 1.353.083 2.029.09h.868a8 8 0 0 0-.418 1.256 34 34 0 0 1-2.58-.1A2.146 2.146 0 0 1 0 5.772V3.227a2.11 2.11 0 0 1 1.94-2.122l.019-.001h.005l.197-.015q.216-.018.432-.031.2-.012.4-.02.107-.007.215-.012l.402-.012.248-.008.343-.003L4.477 1h.046q.137 0 .275.003M4.5 2.249c-.767 0-1.547.03-2.32.092l-.117.009q-.02.001-.039.004c.673.655 1.396 1.35 1.72 1.627a1.13 1.13 0 0 0 1.532-.06l1.578-1.578-.036-.002A30 30 0 0 0 4.5 2.249" />
    </g>
</svg>
